X:3206
L:1/8
Q:1/8=180
M:4/4
K:Amin
 EAAB GABG | EAAB G2 ED | EAAB GABd | edge dBAG | EAAB GABG | EAAB G2 ED | EAAB GABd | 
 edge d2 e^f || ge e2 gede | ge e2 a2 ba | ge e2 ge d2 | e^fge d2 ef | ge e2 gede | ge e2 a2 ga | 
 bgab ge d2 | e^fge dBAG ||

